material/.icons/material/steering.svg

<svg xmlns="http://www.w3.org/2000/svg" viewBox="0 0 24 24"><path d="M13 19.92c1.8-.22 3.35-.97 4.65-2.27 1.3-1.3 2.05-2.85 2.27-4.65h-3c-.22 1-.68 1.84-1.38 2.54-.7.7-1.54 1.16-2.54 1.38v3M10 8h4l3 3h2.92c-.25-1.95-1.13-3.62-2.65-5C15.76 4.66 14 4 12 4c-2 0-3.76.66-5.27 2-1.52 1.38-2.4 3.05-2.65 5H7l3-3m1 11.92v-3c-1-.22-1.84-.68-2.54-1.38-.7-.7-1.16-1.54-1.38-2.54h-3c.22 1.77.97 3.3 2.27 4.6 1.3 1.3 2.85 2.07 4.65 2.32M12 2c2.75 0 5.1 1 7.05 2.95C21 6.9 22 9.25 22 12s-1 5.1-2.95 7.05C17.1 21 14.75 22 12 22s-5.1-1-7.05-2.95C3 17.1 2 14.75 2 12s1-5.1 2.95-7.05C6.9 3 9.25 2 12 2z"/></svg>

<?xml version="1.0" encoding="UTF-8"?><!DOCTYPE svg PUBLIC "-//W3C//DTD SVG 1.1//EN" "http://www.w3.org/Graphics/SVG/1.1/DTD/svg11.dtd"><svg xmlns="http://www.w3.org/2000/svg" xmlns:xlink="http://www.w3.org/1999/xlink" version="1.1" id="mdi-steering" width="24" height="24" viewBox="0 0 24 24"><path d="M13,19.92C14.8,19.7 16.35,18.95 17.65,17.65C18.95,16.35 19.7,14.8 19.92,13H16.92C16.7,14 16.24,14.84 15.54,15.54C14.84,16.24 14,16.7 13,16.92V19.92M10,8H14L17,11H19.92C19.67,9.05 18.79,7.38 17.27,6C15.76,4.66 14,4 12,4C10,4 8.24,4.66 6.73,6C5.21,7.38 4.33,9.05 4.08,11H7L10,8M11,19.92V16.92C10,16.7 9.16,16.24 8.46,15.54C7.76,14.84 7.3,14 7.08,13H4.08C4.3,14.77 5.05,16.3 6.35,17.6C7.65,18.9 9.2,19.67 11,19.92M12,2C14.75,2 17.1,3 19.05,4.95C21,6.9 22,9.25 22,12C22,14.75 21,17.1 19.05,19.05C17.1,21 14.75,22 12,22C9.25,22 6.9,21 4.95,19.05C3,17.1 2,14.75 2,12C2,9.25 3,6.9 4.95,4.95C6.9,3 9.25,2 12,2Z" /></svg>
